X: 2193
T: Şu İzmir`in Dağlarında
C: Tahsin Karakuş
O: Turkey
F: http://compmusic.upf.edu/node/140
N: acemasiran--zeybek--agiraksak--su_izmirin--tahsin_karakus
N: makam= acemasiran
N: form= zeybek
N: usul= agiraksak = 9/4
M: 9/4
L: 1/16
K: C _B   
Q: 1/4=78
%%MIDI tuningsystem comma53
c'2c'b a2g2 f2e2 f4 c'2c'b a2g2 f3e f2g2 a4  | \
w:  ARANAĞME  | 
c'2c'b a2g2 f3e d2e2 f3e d2^3/4c2 d4 d4 d4  | 
w:   | 
fagf e2d2 c2B2 A2f2 e2d2 c2B2 A4 (3A2B2=B2 c4  | \
w:   | 
f3e d2c2 d3c B2A2 G3F E2G2 .F4 .F4 .F4  | 
w:   | 
c'2c'b a2g2 f2e2 f4 c'2c'b a2g2 f3e f2g2 a4  | \
w:  ARANAĞME  | 
c'2c'b a2g2 f3e d2e2 f3e d2^3/4c2 d4 d4 d4  | 
w:   | 
fagf e2d2 c2B2 A2f2 e2d2 c2B2 A4 (3A2B2=B2 c4  | \
w:   | 
f3e d2c2 d3c B2A2 G3F E2G2 .F4 .F4 .F4  | 
w:   | 
c2a2 g2f2 e3d edc=B c8 d3e fed^3/4c .d4  | \
w:  Şu  İz mi rin  dağ la rın *  *  *  da  dağ la rın *  *  *  da    | 
a3g a2b2 a3g f2e2 f8 .f4 .f4 .f4  | 
w:  Bül bül_ ö ter  bağ la rın *  da   SAZ  | 
c2a2 g2f2 e3d edc=B c8 d3e fed^3/4c .d4  | \
w:  Şu  İz mi rin  dağ la rın *  *  *  da  dağ la rın *  *  *  da    | 
a3g a2b2 a3g f2e2 f8 .f4 .f4 .f4  | 
w:  Bül bül_ ö ter  bağ la rın *  da   SAZ  | 
c'2b2 a2g2 f3e f2g2 a8 f2e2 d2^3/4c2 d4  | \
w:  Gön lüm  ta kıl dı  *  kal *  dı  ta kıl dı  kal dı    | 
B3A B2d2 c2B2 A2G2 F8 .F4 .F4 .F4  | 
w:  Zül fü nün_ ağ la *  rın *  da   SAZ  | 
c'2b2 a2g2 f3e f2g2 a8 f2e2 d2^3/4c2 d4  | \
w:  Gön lüm  ta kıl dı  *  kal *  dı  ta kıl dı  kal dı    | 
B3A B2d2 c2B2 A2G2 F8 .F4 .F4 .F4  | 
w:  Zül fü nün_ ağ la *  rın *  da   SAZ  | 
c3_3/4d c2_2/4B2 c4 edcB c8 a4 g2f2 e2=d2  | \
w:  Yol  ve rin  ba na  dağ *  *  *  lar  dağ lar    | 
c2B2 A2B2 A3G F2E2 F8 .F4 .F4 .F4  | 
w:  Sı la da  yâ rim  *  ağ *  lar   SAZ  | 
c3_3/4d c2_2/4B2 c4 edcB c8 a4 g2f2 e2=d2  | \
w:  Yol  ve rin  ba na  dağ *  *  *  lar  dağ lar    | 
c2B2 A2B2 A3G F2E2 F8 .F4 .F4 .F4  | 
w:  Sı la da  yâ rim  *  ağ *  lar   SAZ  | 
c'2c'b a2g2 f2e2 f4 c'2c'b a2g2 f3e f2g2 a4  | \
w:  ARANAĞME  | 
c'2c'b a2g2 f3e d2e2 f3e d2^3/4c2 d4 d4 d4  | 
w:   | 
fagf e2d2 c2B2 A2f2 e2d2 c2B2 A4 (3A2B2=B2 c4  | \
w:   | 
f3e d2c2 d3c B2A2 G3F E2G2 .F4 .F4 .F4  | 
w:   | 
c'2c'b a2g2 f2e2 f4 c'2c'b a2g2 f3e f2g2 a4  | \
w:  ARANAĞME  | 
c'2c'b a2g2 f3e d2e2 f3e d2^3/4c2 d4 d4 d4  | 
w:   | 
fagf e2d2 c2B2 A2f2 e2d2 c2B2 A4 (3A2B2=B2 c4  | \
w:   | 
f3e d2c2 d3c B2A2 G3F E2G2 .F4 .F4 .F4  | 
w:   | 
c2a2 g2f2 e3d edc=B c8 d3e fed^3/4c .d4  | \
w:  Şu  İz mi rin  dağ la rın *  *  *  da  dağ la rın *  *  *  da    | 
a3g a2b2 a3g f2e2 f8 .f4 .f4 .f4  | 
w:  Bül bül_ ö ter  bağ la rın *  da   SAZ  | 
c2a2 g2f2 e3d edc=B c8 d3e fed^3/4c .d4  | \
w:  Şu  İz mi rin  dağ la rın *  *  *  da  dağ la rın *  *  *  da    | 
a3g a2b2 a3g f2e2 f8 .f4 .f4 .f4  | 
w:  Bül bül_ ö ter  bağ la rın *  da   SAZ  | 
c'2b2 a2g2 f3e f2g2 a8 f2e2 d2^3/4c2 d4  | \
w:  Gön lüm  ta kıl dı  *  kal *  dı  ta kıl dı  kal dı    | 
B3A B2d2 c2B2 A2G2 F8 .F4 .F4 .F4  | 
w:  Zül fü nün_ ağ la *  rın *  da   SAZ  | 
c'2b2 a2g2 f3e f2g2 a8 f2e2 d2^3/4c2 d4  | \
w:  Gön lüm  ta kıl dı  *  kal *  dı  ta kıl dı  kal dı    | 
B3A B2d2 c2B2 A2G2 F8 .F4 .F4 .F4  | 
w:  Zül fü nün_ ağ la *  rın *  da   SAZ  | 
c3_3/4d c2_2/4B2 c4 edcB c8 a4 g2f2 e2=d2  | \
w:  Yol  ve rin  ba na  dağ *  *  *  lar  dağ lar    | 
c2B2 A2B2 A3G F2E2 F8 .F4 .F4 .F4  | 
w:  Sı la da  yâ rim  *  ağ *  lar   SAZ  | 
c3_3/4d c2_2/4B2 c4 edcB c8 a4 g2f2 e2=d2  | \
w:  Yol  ve rin  ba na  dağ *  *  *  lar  dağ lar    | 
c2B2 A2B2 A3G F2E2 F8 .F4 .F4 .F4  | 
w:  Sı la da  yâ rim  *  ağ *  lar   SAZ  | 
|


